X: 32561
T: Planxty Hewlett
R: waltz
M: 3/4
K: Dmajor
V:1
|:AA|"D"D2 D2 FG|"A"AB c2 A2|"D"d2 f2 fg|"D"fe d3B|
V:2
|:zz|A2 A2 AB|cd e2 c2|f2 fe de|f2 f2 fd|
V:1
"D"A2 F2 F2|"G"G3A BG|"D"AF D2 D2|"D"D2 D2:|
V:2
d2 A2 A2|B3c dB|dA F2 F2|F4:|
V:1
AB|"D"A2 D2 AB|"D"A2 D2 AB|"D"A2 d2 de|"D"dc BA GF|
V:2
AB|F2 A2 AB|F2 A2 AB|c2 f2 fg|fe dc BA|
V:1
"G"G2 G2 GA|"G"G2 G2 GA|"G"G2 GA BG|"D"AF D2 D2|
V:2
B2 B2 Bc|B2 B2 Bc|B2 Bc dB|cA F2 F2|
V:1
"D"FE F2 G2|"A"AB c2 A2|"D"fe fg ag|"D"fe d3B|
V:2
AG A2 B2|cd e2 e2|d2 de fe|fg f4|
V:1
"D"A2 F2 F2|"G"G3A BG|"D"AF D2 D2|"D"D4 z2||
V:2
d2 A2 A2|B3c dB|dA F2 F2|F4 z2||

